X: 16960
T: Hawthorn, The
R: slip jig
M: 9/8
K: Gmajor
|:dBG GBG AFD|dBG GBd e2 g|
dBG GBG AFD|gbg faf ~e3:|
def ~g3 edB|def ~g3 a2 a|
[1 def ~g3 edB|gbg faf ~e3:|
[2 bag agf gfe|dBG GB/c/d ~e3||

